bundles/org.openhab.ui.habpanel/web/assets/icons/smarthome-set/plug.svg

<?xml version="1.0" encoding="UTF-8" standalone="no"?>
<svg width="32px" height="32px" viewBox="0 0 32 32" version="1.1" xmlns="http://www.w3.org/2000/svg" xmlns:xlink="http://www.w3.org/1999/xlink" xmlns:sketch="http://www.bohemiancoding.com/sketch/ns">
    <!-- Generator: Sketch 3.3.2 (12043) - http://www.bohemiancoding.com/sketch -->
    <title>plug</title>
    <desc>Created with Sketch.</desc>
    <defs></defs>
    <g id="flatten" stroke="none" stroke-width="1" fill="none" fill-rule="evenodd" sketch:type="MSPage">
        <g id="z-copy" sketch:type="MSArtboardGroup" transform="translate(-36.000000, -228.000000)" fill="#000000">
            <g id="plug" sketch:type="MSLayerGroup" transform="translate(36.000000, 228.000000)">
                <path d="M11,23 C10.3779718,21.0915044 9.50096244,20.119319 8.2197139,19.1202512 C7.8416697,18.825467 7.44608199,18.5629309 6.93816986,18.2592362 C6.9289662,18.253733 5.94817318,17.681457 5.6882165,17.5170816 C4.90177487,17.0198 4.40869472,16.5673264 4.10161564,15.9392101 L4,15.73136 L4,15.5 L4,10.0098624 C4,8.34915513 5.3357645,7 6.991155,7 L10,7 L10,0.997544646 C10,0.446615951 10.4438648,0 11,0 C11.5522847,0 12,0.446311399 12,0.997544646 L12,7 L20,7 L20,0.997544646 C20,0.446615951 20.4438648,0 21,0 C21.5522847,0 22,0.446311399 22,0.997544646 L22,7 L25.008845,7 C26.6655868,7 28,8.34230006 28,10.0098624 L28,15.5 L28,15.73136 L27.8983844,15.9392101 C27.6133751,16.5221836 27.156956,16.9695425 26.4555515,17.4527129 C26.6191235,17.3400345 24.39256,18.744833 23.7562872,19.260075 C22.4942536,20.2820467 21.6299388,21.2066735 21,23 L21,25 C21,25 21,26 19,25.9999999 L19,32 L13,32 L12.9970301,25.9999999 C11,26 11,25 11,25 L11,23 Z M13,24 L13,23 L13,22.8411492 L12.950775,22.6901178 C12.2021221,20.3931148 11.0378527,18.7815659 9.44954326,17.5430639 C8.99740354,17.190503 8.5372867,16.8851414 7.96454467,16.542683 C7.92763416,16.5206132 6.98143379,15.9685214 6.757096,15.8266684 C6.25664401,15.5102234 6.10700194,15.2188676 6,15 L6,10.0098624 C6,9.44928356 6.44482433,9 6.991155,9 L25.008845,9 C25.5583704,9 26,9.44423981 26,10.0098624 L26,15 C25.8977569,15.2091335 25.7644537,15.5001789 25.3209719,15.8056764 C25.1671417,15.911644 24.9943002,16.0232304 24.7493528,16.176078 C24.7492081,16.1761683 24.2267825,16.5000371 24.0663641,16.6012494 C23.4501888,16.9900108 22.97224,17.321466 22.4976487,17.7057813 C20.9569572,18.9534049 19.8138109,20.5126947 19.0565154,22.6685837 L19,22.8294732 L19,23 L19,23.5 L19,24.0006073 L13,24 Z M12,14 L20,14 L20,15 L12,15 L12,14 Z M13,16 L19,16 L19,17 L13,17 L13,16 Z M13,12 L19,12 L19,13 L13,13 L13,12 Z M15,26 L17,26 L17,30 L15,30 L15,26 Z" id="Path" sketch:type="MSShapeGroup"></path>
            </g>
        </g>
    </g>
</svg>

<svg width="32" height="32" xmlns="http://www.w3.org/2000/svg"><path d="M11 23c-.622-1.908-1.499-2.88-2.78-3.88a12.194 12.194 0 0 0-1.282-.86c-.009-.006-.99-.579-1.25-.743-.786-.497-1.28-.95-1.586-1.578L4 15.731V10.01A3 3 0 0 1 6.991 7H10V.998C10 .447 10.444 0 11 0c.552 0 1 .446 1 .998V7h8V.998C20 .447 20.444 0 21 0c.552 0 1 .446 1 .998V7h3.009A2.994 2.994 0 0 1 28 10.01v5.721l-.102.208c-.285.583-.741 1.03-1.442 1.514.163-.113-2.063 1.292-2.7 1.807C22.494 20.282 21.63 21.207 21 23v2s0 1-2 1v6h-6l-.003-6C11 26 11 25 11 25v-2Zm2 1v-1.159l-.05-.15c-.748-2.298-1.912-3.91-3.5-5.148a14.098 14.098 0 0 0-1.485-1c-.037-.022-.984-.574-1.208-.716-.5-.317-.65-.608-.757-.827v-4.99A1 1 0 0 1 6.991 9H25.01c.55 0 .991.444.991 1.01V15c-.102.21-.236.5-.679.806-.154.106-.327.217-.572.37l-.683.425c-.616.389-1.094.72-1.568 1.105-1.541 1.247-2.684 2.807-3.441 4.963l-.057.16V24h-6Zm-1-10h8v1h-8v-1Zm1 2h6v1h-6v-1Zm0-4h6v1h-6v-1Zm2 14h2v4h-2v-4Z" fill="#000" fill-rule="evenodd"/></svg>
